outputs/icons/navigation/help_sharp.svg

<svg xmlns="http://www.w3.org/2000/svg" width="1200" height="1200" fill="none"><g clip-path="url(#a)"><path fill="#000" d="M600 100c-276 0-500 224-500 500s224 500 500 500 500-224 500-500-224-500-500-500m50 850H550V850h100zm103.5-387.5-45 46C672.5 645 650 675 650 750H550v-25c0-55 22.5-105 58.5-141.5l62-63c18.5-18 29.5-43 29.5-70.5 0-55-45-100-100-100s-100 45-100 100H400c0-110.5 89.5-200 200-200s200 89.5 200 200c0 44-18 84-46.5 112.5"/></g><defs><clipPath id="a"><path fill="#fff" d="M0 0h1200v1200H0z"/></clipPath></defs></svg>

<svg width="1200" height="1200" viewBox="0 0 1200 1200" fill="none" xmlns="http://www.w3.org/2000/svg"><g clip-path="url(#clip0_117_781)"><path d="M600 100C324 100 100 324 100 600C100 876 324 1100 600 1100C876 1100 1100 876 1100 600C1100 324 876 100 600 100ZM650 950H550V850H650V950ZM753.5 562.5L708.5 608.5C672.5 645 650 675 650 750H550V725C550 670 572.5 620 608.5 583.5L670.5 520.5C689 502.5 700 477.5 700 450C700 395 655 350 600 350C545 350 500 395 500 450H400C400 339.5 489.5 250 600 250C710.5 250 800 339.5 800 450C800 494 782 534 753.5 562.5Z" fill="black"/></g><defs><clipPath id="clip0_117_781"><path width="24" fill="white" d="M0 0H1200V1200H0V0z"/></clipPath></defs></svg>
